X:51
T: Meikuang haozi
N: C1549
O: China, Heilongjiang, Jixiliumao kuang
S: III, 76]
R: Haozi, Meikuang haozi, Zhaohuan hao]
M: 2/4
L: 1/16
K: D
A6FA | F2F2A2FA | A6B2
F2F2A2A2 | A2B2F4 | e2e2f2e2 | A4B4 | A4z4
A6B2 | d6cB | A2B2A2F2 | A4z4 | F4A2F2 | E2F2E2B,2 | D4D4

